configs/network-logos/fuse.svg

<svg width="86" height="24" viewBox="0 0 86 24" fill="none" xmlns="http://www.w3.org/2000/svg">
<g id="Fuse_logo" clip-path="url(#clip0_10452_1505)">
<g id="Clip path group">
<mask id="mask0_10452_1505" style="mask-type:luminance" maskUnits="userSpaceOnUse" x="0" y="-1" width="86" height="25">
<g id="clip0_123_50">
<path id="Vector" d="M85.5707 -1H0V23.2014H85.5707V-1Z" fill="white"/>
</g>
</mask>
<g mask="url(#mask0_10452_1505)">
<g id="Group">
<path id="Vector_2" d="M6.48848 1.35326L10.3234 -0.861376C10.4326 -0.924382 10.5681 -0.924382 10.6773 -0.861376L20.7844 4.97397C20.8936 5.03697 20.9608 5.15353 20.9619 5.27954L20.9755 9.293C20.9755 9.42 20.9083 9.5377 20.798 9.6007L16.9684 11.8121C16.7331 11.9487 16.4381 11.7785 16.437 11.5066L16.4244 7.90477C16.4244 7.77876 16.3562 7.6622 16.247 7.59919L6.48848 1.96651C6.25221 1.83 6.25221 1.48977 6.48848 1.35326Z" fill="#010101"/>
<path id="Vector_3" d="M4.01134 19.5324L0.177465 17.3188C0.0672057 17.2558 0 17.1392 0 17.0121V5.34146C0 5.21545 0.0672057 5.09889 0.176415 5.03483L3.64591 3.01551C3.75617 2.95145 3.89163 2.95145 4.00084 3.01551L7.83051 5.227C8.06573 5.36351 8.06678 5.70269 7.83156 5.84025L4.7191 7.65165C4.60989 7.71466 4.54269 7.83122 4.54269 7.95828V19.2268C4.54269 19.4998 4.24761 19.6689 4.01134 19.5324Z" fill="#010101"/>
<path id="Vector_4" d="M20.9756 12.5839V17.0111C20.9756 17.1382 20.9084 17.2547 20.7981 17.3177L10.691 23.1531C10.5818 23.2161 10.4474 23.2161 10.3382 23.1531L6.85503 21.1579C6.74477 21.0949 6.67651 20.9773 6.67651 20.8502V16.4283C6.67651 16.1564 6.97054 15.9862 7.20681 16.1206L10.3319 17.911C10.4411 17.9741 10.5755 17.973 10.6847 17.911L20.4432 12.2763C20.6794 12.1398 20.9745 12.3099 20.9745 12.5829L20.9756 12.5839Z" fill="#010101"/>
<path id="Vector_5" d="M53.7509 5.17872H49.8362C49.6661 5.17872 49.5295 5.31629 49.5295 5.4864V12.9326C49.5295 13.885 49.3752 14.682 49.0654 15.3226C48.7556 15.9442 48.3303 16.4105 47.7885 16.7213C47.2467 17.0122 46.6271 17.1592 45.9309 17.1592C44.9239 17.1592 44.1405 16.8578 43.5797 16.2561C43.0379 15.6345 42.767 14.6715 42.767 13.3705V5.48745C42.767 5.31733 42.6294 5.17977 42.4603 5.17977H39.6167C39.5936 5.17557 39.5705 5.17347 39.5474 5.17347H33.8832V4.85845C33.8832 4.10028 34.0575 3.53743 34.4062 3.1678C34.7737 2.77927 35.2872 2.585 35.9445 2.585C36.2932 2.585 36.6219 2.63331 36.9316 2.73097C37.1227 2.79187 37.3107 2.87063 37.4735 2.95674C37.6362 3.04284 37.8379 2.96094 37.8998 2.78662L38.8785 0.07844C38.9289 -0.0622711 38.8722 -0.219784 38.743 -0.29434C38.3608 -0.515909 37.9124 -0.682873 37.3958 -0.796283C36.7962 -0.931744 36.1672 -1 35.5088 -1C33.5745 -1 32.0844 -0.465505 31.0385 0.60349C29.9937 1.65252 29.4707 3.06174 29.4707 4.83009V5.17347H27.4252C27.2246 5.17347 27.0608 5.31103 27.0608 5.48115V8.36259C27.0608 8.53271 27.2236 8.67027 27.4252 8.67027H29.4707V20.552C29.4707 20.7221 29.6083 20.8597 29.7774 20.8597H33.6911C33.8601 20.8597 33.9977 20.7221 33.9977 20.552V8.67027H38.2379V14.0394C38.2379 15.6523 38.5183 16.9838 39.0801 18.0329C39.6419 19.063 40.4253 19.8306 41.4313 20.3357C42.4572 20.8408 43.6186 21.0939 44.9144 21.0939C46.1147 21.0939 47.2172 20.8219 48.2232 20.2769C48.8218 19.9482 49.3342 19.5282 49.7616 19.0199V20.552C49.7616 20.7221 49.8992 20.8597 50.0682 20.8597H53.7509C53.921 20.8597 54.0575 20.7221 54.0575 20.552V5.48745C54.0575 5.31733 53.92 5.17977 53.7509 5.17977V5.17872Z" fill="#010101"/>
<path id="Vector_6" d="M66.9318 12.6396C66.3899 12.3088 65.7798 12.0568 65.1025 11.8814C64.4263 11.7071 63.7479 11.5801 63.0706 11.5023C62.4132 11.4047 61.8031 11.2986 61.2414 11.1821C60.6806 11.0655 60.2249 10.9101 59.8773 10.7158C59.5476 10.5216 59.3837 10.2307 59.3837 9.8411C59.3837 9.4137 59.6158 9.064 60.081 8.79207C60.5451 8.5201 61.2812 8.38463 62.2872 8.38463C63.0034 8.38463 63.7385 8.47179 64.4935 8.64716C65.1708 8.78262 65.8397 9.0304 66.5023 9.3896C66.6588 9.4736 66.852 9.4116 66.9276 9.251L68.1772 6.57323C68.2454 6.42727 68.1898 6.25085 68.0491 6.1742C67.3581 5.79721 66.5222 5.50424 65.5394 5.29737C64.4368 5.06425 63.3531 4.94769 62.2883 4.94769C60.7793 4.94769 59.4825 5.17136 58.3988 5.61765C57.3151 6.04609 56.4834 6.63834 55.9027 7.3965C55.3419 8.15466 55.0605 9.0283 55.0605 10.0196C55.0605 10.9132 55.2254 11.642 55.5541 12.2059C55.9027 12.7688 56.3574 13.2161 56.9181 13.5469C57.4799 13.8776 58.0984 14.1297 58.7757 14.305C59.453 14.4604 60.1209 14.5865 60.7783 14.6841C61.4556 14.7818 62.0751 14.8784 62.6359 14.975C63.1966 15.0727 63.6419 15.2186 63.9716 15.4129C64.3202 15.5882 64.4945 15.8602 64.4945 16.2288C64.4945 16.6761 64.2719 17.0258 63.8267 17.2778C63.4014 17.5299 62.6653 17.6569 61.6204 17.6569C60.6722 17.6569 59.7051 17.5215 58.718 17.2495C57.8769 16.9964 57.1313 16.6845 56.4802 16.3139C56.3238 16.2246 56.1253 16.2876 56.0497 16.4514L54.7959 19.1638C54.7297 19.3066 54.7833 19.4757 54.9167 19.5576C55.6045 19.9776 56.4939 20.3357 57.5849 20.6308C58.823 20.9416 60.1104 21.097 61.4451 21.097V21.0949C63.0118 21.0949 64.3381 20.8817 65.4218 20.4544C66.5243 20.027 67.3665 19.4442 67.9472 18.706C68.5279 17.9488 68.8177 17.0836 68.8177 16.1122C68.8177 15.2186 68.6434 14.4993 68.2948 13.9554C67.9462 13.3915 67.4915 12.9546 66.9307 12.6438L66.9318 12.6396Z" fill="#010101"/>
<path id="Vector_7" d="M84.4976 8.73643C83.7814 7.51202 82.8048 6.57954 81.5657 5.93794C80.3466 5.27743 79.0308 4.94666 77.4441 4.94666C75.8574 4.94666 74.4346 5.29634 73.1776 5.99569C71.9196 6.6751 70.9231 7.62753 70.188 8.85194C69.4719 10.0564 69.1138 11.4656 69.1138 13.0197C69.1138 14.5739 69.4813 15.9642 70.2164 17.1875C70.9514 18.392 71.9868 19.3444 73.3215 20.0438C74.6761 20.7431 76.2428 21.0928 78.0238 21.0928V21.0949C79.4372 21.0949 80.6858 20.8807 81.7684 20.4544C82.7565 20.0469 83.5913 19.4851 84.2739 18.7711C84.3852 18.6545 84.3852 18.4697 84.276 18.35L82.2651 16.1606C82.1517 16.0377 81.9627 16.0293 81.8356 16.1396C81.3725 16.5438 80.8664 16.8547 80.3161 17.072C79.6966 17.3241 78.971 17.4511 78.1393 17.4511C77.211 17.4511 76.3982 17.2863 75.701 16.9555C75.0237 16.6058 74.4913 16.1101 74.1048 15.4696C73.9043 15.1105 73.7615 14.7209 73.6701 14.3029H85.2053C85.3628 14.3029 85.4952 14.1822 85.5099 14.0247C85.5204 13.9165 85.5309 13.8042 85.5403 13.6907C85.5603 13.4576 85.5697 13.2539 85.5697 13.0785C85.5697 11.3879 85.2116 9.9409 84.4955 8.73538L84.4976 8.73643ZM75.4122 8.91179C76.0118 8.56211 76.6996 8.38675 77.4735 8.38675C78.2474 8.38675 78.9248 8.56211 79.5055 8.91179C80.0862 9.2415 80.5408 9.7088 80.8695 10.3105C81.0879 10.7095 81.2318 11.1569 81.3053 11.6504H73.6176C73.6932 11.1653 73.836 10.7274 74.0481 10.3389C74.3779 9.7172 74.8315 9.2415 75.4122 8.91074V8.91179Z" fill="#010101"/>
</g>
</g>
</g>
</g>
<defs>
<clipPath id="clip0_10452_1505">
<rect width="86" height="25" fill="white" transform="translate(0 -1)"/>
</clipPath>
</defs>
</svg>

<svg xmlns="http://www.w3.org/2000/svg" fill="none" viewBox="0 0 86 24">
  <g clip-path="url(#fuse_svg__a)">
    <mask id="fuse_svg__b" width="86" height="25" x="0" y="-1" maskUnits="userSpaceOnUse" style="mask-type:luminance">
      <path fill="#fff" d="M85.57-1H0v24.201h85.57V-1Z"/>
    </mask>
    <g fill="#010101" mask="url(#fuse_svg__b)">
      <path d="M6.488 1.353 10.323-.86a.355.355 0 0 1 .354 0l10.107 5.835c.11.063.177.18.178.306l.014 4.013a.354.354 0 0 1-.178.308l-3.83 2.211a.354.354 0 0 1-.531-.305l-.013-3.602a.354.354 0 0 0-.177-.306L6.488 1.967a.354.354 0 0 1 0-.614ZM4.011 19.532.177 17.32A.352.352 0 0 1 0 17.012V5.342c0-.127.067-.243.176-.307l3.47-2.02a.352.352 0 0 1 .355 0l3.83 2.212a.355.355 0 0 1 0 .613L4.72 7.652a.353.353 0 0 0-.176.306v11.269a.354.354 0 0 1-.532.305Zm16.965-6.948v4.427a.352.352 0 0 1-.178.307l-10.107 5.835a.353.353 0 0 1-.353 0l-3.483-1.995a.355.355 0 0 1-.178-.308v-4.422c0-.272.294-.442.53-.307l3.125 1.79c.11.063.243.062.353 0l9.758-5.635a.354.354 0 0 1 .531.307h.002ZM53.75 5.179h-3.914a.307.307 0 0 0-.306.307v7.447c0 .952-.155 1.749-.465 2.39-.31.621-.735 1.087-1.276 1.398-.542.291-1.162.438-1.858.438-1.007 0-1.79-.301-2.351-.903-.542-.622-.813-1.585-.813-2.886V5.487a.307.307 0 0 0-.307-.307h-2.843a.387.387 0 0 0-.07-.007h-5.664v-.315c0-.758.174-1.32.523-1.69.368-.389.881-.583 1.538-.583.35 0 .678.048.988.146.19.06.379.14.541.226a.304.304 0 0 0 .427-.17l.979-2.709a.31.31 0 0 0-.136-.372 4.665 4.665 0 0 0-1.347-.502A8.54 8.54 0 0 0 35.509-1c-1.934 0-3.425.534-4.47 1.603-1.045 1.05-1.568 2.459-1.568 4.227v.343h-2.046c-.2 0-.364.138-.364.308v2.882c0 .17.163.307.364.307h2.046v11.882c0 .17.137.308.306.308h3.914a.307.307 0 0 0 .307-.308V8.67h4.24v5.37c0 1.612.28 2.944.842 3.993.562 1.03 1.345 1.798 2.351 2.303 1.026.505 2.188.758 3.483.758 1.2 0 2.303-.272 3.31-.817a5.364 5.364 0 0 0 1.538-1.257v1.532c0 .17.137.308.306.308h3.683c.17 0 .306-.138.306-.308V5.487a.307.307 0 0 0-.306-.307v-.001Zm13.182 7.461a6.722 6.722 0 0 0-1.83-.759 14.998 14.998 0 0 0-2.031-.379 32.695 32.695 0 0 1-1.83-.32c-.56-.117-1.016-.272-1.364-.466-.33-.194-.493-.485-.493-.875 0-.427.232-.777.697-1.049.464-.272 1.2-.407 2.206-.407.716 0 1.452.087 2.206.262a7.149 7.149 0 0 1 2.01.743.307.307 0 0 0 .425-.139l1.25-2.678a.307.307 0 0 0-.129-.399c-.69-.377-1.527-.67-2.51-.877a15.689 15.689 0 0 0-3.25-.35c-1.51 0-2.806.224-3.89.67-1.084.43-1.916 1.021-2.496 1.78-.561.758-.843 1.631-.843 2.623 0 .893.165 1.622.494 2.186a3.94 3.94 0 0 0 1.364 1.34 7.13 7.13 0 0 0 1.858.759c.677.155 1.345.281 2.002.38.678.097 1.297.193 1.858.29.56.098 1.006.244 1.336.438.348.175.523.447.523.816 0 .447-.223.797-.668 1.049-.426.252-1.162.379-2.207.379a10.93 10.93 0 0 1-2.902-.407 10.81 10.81 0 0 1-2.238-.936.306.306 0 0 0-.43.137l-1.254 2.713a.31.31 0 0 0 .12.394c.689.42 1.578.778 2.669 1.073a15.8 15.8 0 0 0 3.86.466v-.002c1.567 0 2.893-.213 3.977-.64 1.102-.428 1.945-1.01 2.525-1.749.58-.757.87-1.622.87-2.594 0-.893-.174-1.613-.522-2.157-.349-.563-.803-1-1.364-1.311v-.004Zm17.566-3.904a7.143 7.143 0 0 0-2.932-2.798c-1.22-.66-2.535-.991-4.122-.991-1.587 0-3.01.35-4.266 1.049a7.687 7.687 0 0 0-2.99 2.856c-.716 1.204-1.074 2.614-1.074 4.168 0 1.554.367 2.944 1.102 4.168.735 1.204 1.77 2.156 3.106 2.856 1.354.7 2.92 1.049 4.702 1.049v.002c1.413 0 2.662-.214 3.744-.64.989-.408 1.823-.97 2.506-1.684a.31.31 0 0 0 .002-.421l-2.01-2.19a.308.308 0 0 0-.43-.02 5.21 5.21 0 0 1-1.52.932c-.62.252-1.345.38-2.177.38-.928 0-1.74-.166-2.438-.497a3.934 3.934 0 0 1-1.596-1.485 4.23 4.23 0 0 1-.435-1.167h11.535c.158 0 .29-.12.305-.278l.03-.334c.02-.233.03-.437.03-.613 0-1.69-.358-3.137-1.074-4.343l.002.001Zm-9.086.176c.6-.35 1.288-.525 2.061-.525.774 0 1.452.175 2.032.525.581.33 1.036.797 1.365 1.398a4 4 0 0 1 .435 1.34h-7.687c.075-.485.218-.923.43-1.311a3.471 3.471 0 0 1 1.364-1.428Z"/>
    </g>
  </g>
  <defs>
    <clipPath id="fuse_svg__a">
      <path fill="#fff" d="M0-1h86v25H0z"/>
    </clipPath>
  </defs>
</svg>
